uilabor/images/npm-logo.svg

<svg xmlns="http://www.w3.org/2000/svg" width="518pt" height="202pt" viewBox="0 0 18 7"><path fill="#CB3837" d="M0,0v6h5v1h4v-1h9v-6"/><path fill="#FFF" d="M1,1v4h2v-3h1v3h1v-4h1v5h2v-4h1v2h-1v1h2v-4h1v4h2v-3h1v3h1v-3h1v3h1v-4"/></svg>

<svg xmlns="http://www.w3.org/2000/svg" width="518pt" height="202pt" viewBox="0 0 18 7"><path fill="#CB3837" d="M0 0v6h5v1h4V6h9V0"/><path fill="#FFF" d="M1 1v4h2V2h1v3h1V1h1v5h2V2h1v2H8v1h2V1h1v4h2V2h1v3h1V2h1v3h1V1"/></svg>
